X: 21955
T: Kitty In The Lane
R: reel
M: 4/4
K: Ddorian
|:dcAB c3A|GEE2 c4|dcAB cdcA|GEcE EDD2|
dcAB c3A|GEE2 B/c/ded|dcAB cded|cAGE EDD2:|
|:d2eg fdeA|B/c/def gfg2|d2eg fdeA|B/c/deg fddA|
d2eg fdeA|B/c/def g2fg|afge fded|^cAGE EDD2:|

